svg/600/outlined/swap_vert-fill.svg

<svg xmlns="http://www.w3.org/2000/svg" width="48" height="48" viewBox="0 -960 960 960"><path d="M312.26-449.435V-743.39L201.435-631.999l-55.566-55.566 206.566-207.131 206.566 207.131-55.566 55.566L392.044-743.39v293.955H312.26ZM608.13-65.869 401.565-272.435l55.565-55.566 110.826 110.826V-511.13h79.784v293.955l111.39-110.826 55.566 55.566L608.13-65.869Z"/></svg>

<svg xmlns="http://www.w3.org/2000/svg" width="48" height="48" viewBox="0 -960 960 960"><path d="M312.26-449.43v-293.96L201.43-632l-55.56-55.57L352.43-894.7 559-687.57 503.43-632 392.04-743.39v293.96h-79.78ZM608.13-65.87 401.56-272.43 457.13-328l110.83 110.82v-293.95h79.78v293.95L759.13-328l55.57 55.57L608.13-65.87Z"/></svg>
